local/share/icons/dracula-icons-main/22/actions/fitbest.svg

<svg xmlns="http://www.w3.org/2000/svg" width="22" height="22" version="1.1" viewBox="0 0 22 22">
 <defs>
  <style id="current-color-scheme" type="text/css">
   .ColorScheme-Text { color:#FFFFFF; } .ColorScheme-Highlight { color:#5294e2; }
  </style>
 </defs>
 <path style="fill:currentColor" class="ColorScheme-Text" d="M 11,3 9.5,5 8,7 h 2 v 3 H 7 V 8 L 5,9.5 3,11 5,12.5 7,14 v -2 h 3 v 3 H 8 l 1.5,2 1.5,2 1.5,-2 1.5,-2 h -2 v -3 h 3 v 2 L 17,12.5 19,11 17,9.5 15,8 v 2 H 12 V 7 h 2 L 12.5,5 Z"/>
</svg>

<?xml version="1.0" encoding="UTF-8"?>
<svg xmlns="http://www.w3.org/2000/svg" xmlns:xlink="http://www.w3.org/1999/xlink" width="22" height="22" viewBox="0 0 22 22">
<path fill-rule="nonzero" fill="rgb(100%, 100%, 100%)" fill-opacity="1" d="M 11 3 L 8 7 L 10 7 L 10 10 L 7 10 L 7 8 L 3 11 L 7 14 L 7 12 L 10 12 L 10 15 L 8 15 L 11 19 L 14 15 L 12 15 L 12 12 L 15 12 L 15 14 L 19 11 L 15 8 L 15 10 L 12 10 L 12 7 L 14 7 Z M 11 3 "/>
</svg>
